!!!OTL: 214. Mailied.
!!!COM: Joſ. A.P. Schulz
!!!ODT: 1790
!!!ARE: Europa, Mitteleuropa, Deutschland
!!!SCT: B0214
!!!TXL: @@DE
!!!YEM: Copyright 1995, estate of Helmut Schaffrath.
**kern	**text
*ICvox	*
*Ivox	*
*clefG2	*
*M6/8	*
*k[f#c#g#d#]	*
*E:	*
=1	=1
!LO:TX:a:t=Munter.	!
{4ee	O,
8b	der
4ee	ſchö-
8b	-ne
=2	=2
4cc#	Mai-
8a	-en-
4.b}	-mond!
=3	=3
{4e	Wenn
8e	in
8eL	Thal
8f#J	.
8g#	und
=4	=4
4.g#	Hö-
4.f#}	-hen
=5	=5
{8f#L	Blü-
8g#J	.
8a	-ten-
8f#L	-bäu-
8g#J	.
8a	-me
=6	=6
4.a	we-
4.g#}	-hen
=7	=7
{8g#L	und
8f#J	.
8e	im
8bL	Neſt
8cc#J	.
8dd#	der
=8	=8
8eeL	Vo-
8cc#J	.
8a#	-gel
4b	wohnt!
8r}	.
=9	=9
{4ff#	O
8ee	der
4dd#	ſchö-
8cc#	-ne
=10	=10
4b/	Mai-
8a	-en-
4.g#}	-mond!
=11	=11
{4gg#	Herr-
8ee	-lich
8cc#L	ſchö-
8aaJ	.
8ff#	-ner
=12	=12
8dd#L	Mai-
8cc#J	.
8b	-en-
4ee	mond!
8r}	.
==	==
!!!AGN: Jahreszeiten - Lied, Fruehling
!!!GTL: Jahreszeitenlieder
!!!ONB: ESAC (Essen Associative Code) Database: BOEHME
!!!AMT: compound duple
!!!AIN: vox
!!!EED: Helmut Schaffrath
!!!EEV: 1.0
!!Joſ. Abraham Peter Schulʒ. 1790.
!!@@COMMENT:"Text von Joh. Heinr. Voß 1789. Mehrere Strophen am Schluſſe ſind in Liederbüchern längſt
!!weggelaſſen. Vergl. Fink, "Hausſchatʒ"."
!!@@END:
!!!Text: J. H. Voß
!!!URL-scan: https://archive.org/details/BoehmeVtLieder1895/page/n197/mode/2up
!!!ENC: Anna Maria Matuszewska
!!!EEV: 2024/24/06
*-	*-
